X:1
T:Glorious Yuletide
T:Alexis Fyodorovich Lvov, 1833
T:Glorious Yuletide
T:Public Domain
T:Public Domain
C:Alexis Fyodorovich Lvov, 1833
Z:Public Domain
%%score ( 1 2 ) ( 3 4 )
L:1/8
M:4/4
K:C
V:1 treble 
V:2 treble 
V:3 bass 
V:4 bass 
V:1
 [_E_B]4 [Ec]2 [Ec]2 | [_E_B]3 [EG] E4 | [_E_e]4 [Ed]2 [Ec]2 | [_E_B]4 [=Ec]4 | %4
w: 1.~Glor- i- ous|Yu- le- tide,|bells pro- claim|it, Child-|
w: 2.~On- ward to|Beth- le- hem,|low the shep-|herds, Ga-|
w: 3.~On- ward to|Beth- le- hem,|low the wise|men, Come|
 [F_A]4 [F_B]2 [FB]2 | [_EG]3 [EG] [EG]2 [GA]2 | (D2 C2) [^FA]2 [FA]2 | G8 | [D_A]4 [DG]2 [DF]2 | %9
w: ren ex- tol|its joys in ju-|bi- * lant throng.|all|peo- ple, join|
w: ther a- round|the low- ly man-|ger * and stall.|with|an- gels, wel-|
w: from a- far|with their gifts and|hom- * age to|Sweet-|than in- cense,|
 [_EG]4 (E2 F2) | ([G_e]3 [Fd]) [Gc]2 [FB]2 | [_Ec]4 [D_B]4 | (G2 _E2) [Ed]2 [Ec]2 | %13
w: in our *|ness, * Loud ring|our prais-|es * in sac-|
w: come the *|ior * Born in|the flesh|to * be Lord|
w: prized more *|jew- * els, Hearts|true and|loy- * al un-|
 (_E2 ^C2) [=C=B]2 [F_A]2 | [_EG]4 [DF]4 | _E8 |] %16
w: song. * * *|||
w: all. * * *|||
w: the * King! *|||
V:2
 x8 | x4 _E4 | x8 | x8 | x8 | x8 | _B4 x4 | D8 | x8 | x4 G4 | x8 | x8 | _e4 x4 | _B4 x4 | x8 | %15
w: |glad|||||Come,|ye||glad-|||red|||
w: |fol-|||||Join|the||Sav-|||of|||
w: |fol-|||||bring.|er||than|||to|||
 _E8 |] %16
w: |
w: |
w: |
V:3
 [_E,G,]4 [_A,,_A,]2 [C,A,]2 | [_E,G,]3 [E,_B,] [E,_E]4 | [_A,,C]4 [A,,_B,]2 [C,_A,]2 | %3
 [_E,G,]4 (G,2 C2) | [F,C]4 [D,_B,]2 [D,B,]2 | [_E,_B,]3 [E,C] [E,B,]2 [C,_E]2 | %6
 [D,D]4 [D,D]2 [D,C]2 | [G,_B,]8 | [_B,,F,]4 [B,,_B,]2 [B,,_A,]2 | [_E,G,]4 ([E,_B,]2 [D,=B,]2) | %10
 ([C,C]3 [F,A,]) [G,_E]2 [G,,D]2 | (C2 F,2) (G,2 _A,2) | (_E2 C2) [_B,,G,]2 [_A,,_A,]2 | %13
 ([_E,,_E,]2 [E,,=E,]2) [F,,F,]2 [_A,,C]2 | [_B,,_B,]4 (B,2 _A,2) | [_E,G,]8 |] %16
V:4
 x8 | x8 | x8 | x4 C,4 | x8 | x8 | x8 | x8 | x8 | x8 | x8 | _A,,4 _B,,4 | C,4 x4 | G,4 x4 | %14
 x4 _B,,4 | x8 |] %16

